X: 1
T: Night In That Land
M: 3/4
L: 1/8
R: waltz
K: Gmaj
B2 BA B<d|E4 cB|A3 G B<G|A3 D GF|
E2 e2 d<A|B3 D GF|E2 c2 A<G|A4 D2|
B2 BA B<d|E4 cB|A3 G B<G|A3 D GF|
E2 e2 d<A|B3 D GF|E2 c2 A<G|A6||
cB GA BG|(A4A) D|cB GA Bc|d6|
cB GA BG|A3 D GF|E3 D E<G|A4 D2||
B2 BA B<d|E4 cB|A3 G B<G|A3 D GF|
E2 e2 d<A|B3 D GF|E2 c2 A<G|A6||
d3 d cB|G6|d3 d cB|A2 B2 c2|
B3 B A<G|E3 E D<B,|D6-|D6|
d3 d cB|G6|d3 d cB|A2 B2 c2|
B3 B A<G|G3 A B<c|A2 B2 c2|
d2 B3 A|G4 A<B|c2 A2 G2|GE3 ED|D6-|D6||
cB GA BG|A5 D|cB GA Bc|d6|
cB GA BG|A3 D GF|E3 D E<G|A4 D2||
B2 BA B<d|E4 cB|A3 G B<G|A3 D GF|
E2 e2 d<A|B3 D GF|E2 c2 A<G|A4 D2|
B2 BA B<d|E4 cB|A3 G B<G|A3 D GF|
E2 e2 d<A|B3 D GF|E2 c2 A<G|A6||
